X: 100389
P: THE CHORUS LANCERS QUADRILLES -- Part 3.
M: 6/8
L: 1/8
K: C
(uc/d/)!segno!|\
(.e2.e)(e2f) | a2g- gfe | (.d2.d) ded | c3 Gcd |\
(.e2.e) (e2f) | a2g- gfe | (.d2.d) ded | c3- c2 |]
(uB/c/) |\
(.d2.d) d^cd | f2_e- edc | (.^f2.f) fga | g3- g2(B/c/) |\
"Ritard."(.d2.d) d^cd | (f2_e) Hd2uc | (.[^f2A2D2].f) fga | g3 g^f=f !segno!"_D.C."|]


